!!!COM:	Josquin des Prez
!!!CDT:	~1450-1521/08/27
!!!OPR:	Missa Sine nomine
!!!OTA: Missa Ad fugam
!!!ONM:	2
!!!OTL:	Gloria
!!!AGN:	Mass; Gloria
!!!SCT:	NJE 12.2
!!!SCA:	New Josquin Edition 12.2
!!!voices: 4
!!!voices-OPR:	4
**kern	**text	**kern	**text	**kern	**text	**kern	**text
*staff4	*staff4	*staff3	*staff3	*staff2	*staff2	*staff1	*staff1
*Ivox	*	*Ivox	*	*Ivox	*	*Ivox	*
*I"Bassus	*	*I"Tenor	*	*I"Altus	*	*I"Superius	*
*I'B	*	*I'T	*	*I'A	*	*I'S	*
*>[A,B,C]	*>[A,B,C]	*>[A,B,C]	*>[A,B,C]	*>[A,B,C]	*>[A,B,C]	*>[A,B,C]	*>[A,B,C]
*>A	*>A	*>A	*>A	*>A	*>A	*>A	*>A
*clefF4	*	*clefGv2	*	*clefGv2	*	*clefG2	*
*k[]	*	*k[]	*	*k[]	*	*k[]	*
*M3/1	*	*M3/1	*	*M3/1	*	*M3/1	*
*met(O)	*	*met(O)	*	*met(O)	*	*met(O)	*
!!section: Et in terra pax
!!!OMD: Et in terra pax
=1-	=1-	=1-	=1-	=1-	=1-	=1-	=1-
!LO:TX:Z=22:X=-40:t=Tenor in diapente	!	!LO:TX:Z=4:X=-40:t=Tenor in basso	!	!	!	!	!
!LO:TX:Z=6:X=-40:t=Canon at the upper fifth (B-->T, one breve)	!	!	!	!	!	!	!
0.r	.	0.r	.	1d	Et	0.r	.
.	.	.	.	1d	in	.	.
.	.	.	.	1G	ter-	.	.
=2	=2	=2	=2	=2	=2	=2	=2
0.r	.	0.r	.	2.d\	.	1a	Et
.	.	.	.	4c\	.	.	.
.	.	.	.	2A/	.	1a	in
.	.	.	.	2c\	.	.	.
.	.	.	.	1B	-ra	1d	ter-
=3	=3	=3	=3	=3	=3	=3	=3
0.r	.	0.r	.	1A	pax	2.a/	.
.	.	.	.	.	.	4g/	.
.	.	.	.	2r	.	2e/	.
.	.	.	.	2G/	ho-	2g/	.
.	.	.	.	2A/	.	1f	-ra
.	.	.	.	2B\	.	.	.
=4	=4	=4	=4	=4	=4	=4	=4
1A	Et	0.r	.	2c\	-mi-	0e	pax
.	.	.	.	1d	.	.	.
1A	in	.	.	.	.	.	.
.	.	.	.	2c#i\	-ni-	.	.
1D	ter-	.	.	1d	-bus,	1r	.
=5	=5	=5	=5	=5	=5	=5	=5
2.A\	.	1e	Et	0.r	.	0.r	.
4G\	.	.	.	.	.	.	.
2E\	.	1e	in	.	.	.	.
2G\	.	.	.	.	.	.	.
1F	-ra	1A	ter-	.	.	.	.
=6	=6	=6	=6	=6	=6	=6	=6
1E	pax	2.e\	.	0.r	.	0.r	.
.	.	4d\	.	.	.	.	.
2r	.	2B\	.	.	.	.	.
2D\	ho-	2d\	.	.	.	.	.
2E\	-mi-	1c	-ra	.	.	.	.
2F\	-ni-	.	.	.	.	.	.
=7	=7	=7	=7	=7	=7	=7	=7
2G\	-bus,	1B	pax	0.r	.	0.r	.
2D\	bo-	.	.	.	.	.	.
2E\	-ne	2r	.	.	.	.	.
2F\	vo-	2A/	ho-	.	.	.	.
2G\	-lun-	2B\	-mi-	.	.	.	.
2A\	-ta-	2c\	-ni-	.	.	.	.
=8	=8	=8	=8	=8	=8	=8	=8
1D	-tis.	2d\	-bus,	0.r	.	0.r	.
.	.	2A/	bo-	.	.	.	.
2r	.	2B\	-ne	.	.	.	.
2A\	Lau-	2c\	vo-	.	.	.	.
2G\	-da-	2d\	-lun-	.	.	.	.
2E\	.	2e\	-ta-	.	.	.	.
=9	=9	=9	=9	=9	=9	=9	=9
1F	-mus	1A	-tis.	0.r	.	0.r	.
1E	te.	2r	.	.	.	.	.
.	.	2e\	Lau-	.	.	.	.
2r	.	2d\	-da-	.	.	.	.
2G\	Be-	2B\	.	.	.	.	.
=10	=10	=10	=10	=10	=10	=10	=10
2A\	-ne-	1c	-mus	0.r	.	0.r	.
2A\	-di-	.	.	.	.	.	.
2G\	-ci-	1B	te.	.	.	.	.
2E\	.	.	.	.	.	.	.
1F	-mus	2r	.	.	.	.	.
.	.	2d\	Be-	.	.	.	.
=11	=11	=11	=11	=11	=11	=11	=11
1E	te.	2e\	-ne-	0.r	.	1g	Ad-
.	.	2e\	-di-	.	.	.	.
1r	.	2d\	-ci-	.	.	2f/	-o-
.	.	2B\	.	.	.	2g/	-ra-
1r	.	1c	-mus	.	.	1e	-mus
=12	=12	=12	=12	=12	=12	=12	=12
0.r	.	1B	te.	1d	Ad-	1d	te.
.	.	1r	.	2c\	-o-	2r	.
.	.	.	.	2d\	-ra-	2a/	Glo-
.	.	1r	.	1B	-mus	2b\	-ri-
.	.	.	.	.	.	2g/	-fi-
=13	=13	=13	=13	=13	=13	=13	=13
0.r	.	0.r	.	1A	te.	2a/	-ca-
.	.	.	.	.	.	2cc\	.
.	.	.	.	2r	.	1b	-mus
.	.	.	.	2e\	Glo-	.	.
.	.	.	.	2f\	-ri-	2a/	te.
.	.	.	.	2d\	-fi-	2dd\	Gra-
=14	=14	=14	=14	=14	=14	=14	=14
0.r	.	0.r	.	2e\	-ca-	2cc\	-ti-
.	.	.	.	2g\	.	2b\	-as
.	.	.	.	2f\	.	2a/	a-
.	.	.	.	2e\	.	2cc\	-gi-
.	.	.	.	1g	-mus	1b	-mus
=15	=15	=15	=15	=15	=15	=15	=15
1A	Gra-	0.r	.	2e\	te.	2r	.
.	.	.	.	1f	Gra-	1a	ti-
2A\	-ti-	.	.	.	.	.	.
2A\	-as	.	.	4e\	-ti-	4g/	.
.	.	.	.	4d\	.	4f/	.
2A\	a-	.	.	2c\	-as	2e/	.
2A\	-gi-	.	.	2A/	a-	2f/	-bi,
=16	=16	=16	=16	=16	=16	=16	=16
2G\	-mus	1e	Gra-	2B\	-gi-	2g/	prop-
1A	ti-	.	.	2c\	-mus	2e/	-ter
.	.	2e\	-ti-	1A	ti-	1a	ma-
4G\	.	2e\	-as	.	.	.	.
4F\	.	.	.	.	.	.	.
1E	-bi,	2e\	a-	[1B	-bi,	1g	-gnam
.	.	2e\	-gi-	.	.	.	.
=17	=17	=17	=17	=17	=17	=17	=17
2r	.	2d\	-mus	1B]	.	1.g	glo-
1E	prop-	1e	ti-	.	.	.	.
.	.	.	.	1r	.	.	.
2F\	-ter	4d\	.	.	.	2a/	-ri-
.	.	4c\	.	.	.	.	.
1G	ma-	1B	-bi,	1d	prop-	1b	-am
=18	=18	=18	=18	=18	=18	=18	=18
2A\	-gnam	2r	.	2c\	-ter	2e/	tu-
2E\	glo-	1B	prop-	2e\	ma-	1g	.
2G\	-ri-	.	.	2d\	-gnam	.	.
2A\	-am	2c\	-ter	2c\	glo-	2e/	.
1F	tu-	1d	ma-	1A	-ri-	1a	.
=19	=19	=19	=19	=19	=19	=19	=19
1E	-am,	2e\	-gnam	1.B	-am	1.g	-am,
.	.	2B\	glo-	.	.	.	.
1r	.	2d\	-ri-	.	.	.	.
.	.	2e\	-am	2G/	tu-	2g/	tu-
1r	.	1c	tu-	1A	.	2.e/	.
.	.	.	.	.	.	4f/	.
=20	=20	=20	=20	=20	=20	=20	=20
0.r	.	1B	-am,	1G	-am,	0g	-am,
.	.	1r	.	2r	.	.	.
.	.	.	.	2G/	Do-	.	.
.	.	1r	.	2A/	-mi-	2r	.
.	.	.	.	2B\	-ne	2d/	Do-
=21	=21	=21	=21	=21	=21	=21	=21
0.r	.	0.r	.	2c\	de-	2e/	-mi-
.	.	.	.	2A/	-us	2f/	-ne
.	.	.	.	2B\	rex	2g/	de-
.	.	.	.	2c\	ce-	2e/	-us
.	.	.	.	1A	-le-	4f/	rex
.	.	.	.	.	.	4e/	.
.	.	.	.	.	.	[2a/	.
=22	=22	=22	=22	=22	=22	=22	=22
0.r	.	0.r	.	1B	-stis,	2a/]	.
.	.	.	.	.	.	2g#i/	ce-
.	.	.	.	1A	de-	2a/	-le-
.	.	.	.	.	.	2cc\	.
.	.	.	.	1d	-us	2b\	-stis
.	.	.	.	.	.	[2a/	De-
=23	=23	=23	=23	=23	=23	=23	=23
0.r	.	0.r	.	1d	pa-	4a/]	.
.	.	.	.	.	.	4g/	.
.	.	.	.	.	.	2f/	.
.	.	.	.	1c	-ter	1e	-us
.	.	.	.	2r	.	1f	pa-
.	.	.	.	2A/	om-	.	.
=24	=24	=24	=24	=24	=24	=24	=24
1G	Do-	0.r	.	1B	.	2.d/	-ter
.	.	.	.	.	.	4e/	.
2F\	-mi-	.	.	2A/	-ni-	2f/	.
2G\	-ne	.	.	1d	-pot-	2d/	om-
1E	Fi-	.	.	.	.	1e	-ni-
.	.	.	.	2c#i\	.	.	.
=25	=25	=25	=25	=25	=25	=25	=25
1D	-li	1d	Do-	1d	-ens.	2.f/	-po-
.	.	.	.	.	.	4g/	.
1r	.	2c\	-mi-	2e\	Do-	1a	-tens.
.	.	2d\	-ne	2f\	-mi-	.	.
1G	u-	1B	fi-	2d\	-ne	2r	.
.	.	.	.	[2e\	Fi-	2g/	Do-
=26	=26	=26	=26	=26	=26	=26	=26
2F\	-ni-	1A	-li	4e\]	.	2a/	-mi-
.	.	.	.	4d\	.	.	.
2D\	-ge-	.	.	1d	.	2f/	-ne
1E	-ni-	1r	.	.	.	1g	fi-
.	.	.	.	2c#i\	.	.	.
1D	-te,	1d	u-	1d	-li	1f	-li
=27	=27	=27	=27	=27	=27	=27	=27
1A	Je-	2c\	-ni-	2e\	u-	1cc	u-
.	.	2A/	-ge-	2.f\	-ni-	.	.
2G\	-su	1B	-ni-	.	.	2b\	-ni-
.	.	.	.	4e\	.	.	.
2E\	.	.	.	1e	-ge-	2g/	-ge-
1F	Chri-	1A	-te,	.	.	1a	-ni-
.	.	.	.	2d\	-ni-	.	.
=28	=28	=28	=28	=28	=28	=28	=28
1E	-ste,	1e	Je-	2e\	-te,	2g/	-te,
.	.	.	.	2E/	Je-	2.cc\	Je-
1r	.	2d\	-su	2F/	.	.	.
.	.	.	.	.	.	4b\	-su
.	.	2B\	.	2G/	.	1b	Chri-
1r	.	1c	Chri-	2E/	.	.	.
.	.	.	.	2F/	.	2a/	.
=29	=29	=29	=29	=29	=29	=29	=29
2r	.	1B	-ste,	4G/	.	2b\	-ste,
.	.	.	.	4E/	.	.	.
2E\	Do-	.	.	2e\	.	2g/	Do-
2F\	-mi-	1r	.	2A/	-su	2a/	-mi-
2E\	-ne	.	.	2.e\	Chri-	2g/	-ne
1F	de-	1r	.	.	.	1a	De-
.	.	.	.	4c\	.	.	.
.	.	.	.	2d\	.	.	.
=30	=30	=30	=30	=30	=30	=30	=30
1E	-us	2r	.	2e\	-ste,	1g	-us
.	.	2B\	Do-	2.E/	Do-	.	.
1r	.	2c\	-mi-	.	.	2r	.
.	.	.	.	4F/	-mi-	.	.
.	.	2B\	-ne	2G/	-ne	2g/	a-
1r	.	1c	de-	2.C/	De-	2.e/	-gnus
.	.	.	.	4D/	.	4f/	.
=31	=31	=31	=31	=31	=31	=31	=31
2r	.	1B	-us	2E/	-us	1g	.
2E\	a-	.	.	2e\	a-	.	.
2F\	.	1r	.	2A/	-gnus	2a/	de-
2E\	-gnus	.	.	1e	de-	2g/	.
1F	De-	1r	.	.	.	1a	.
.	.	.	.	2d\	.	.	.
=32	=32	=32	=32	=32	=32	=32	=32
1E	-i,	2r	.	2e\	-i,	1g	-i,
.	.	2B\	a-	2.E/	Fi-	.	.
1r	.	2c\	.	.	.	2r	.
.	.	.	.	4F/	.	.	.
.	.	2B\	-gnus	2G/	.	2g/	Fi-
1r	.	1c	De-	2.C/	.	2.e/	.
.	.	.	.	4D/	.	4f/	.
=33	=33	=33	=33	=33	=33	=33	=33
2r	.	1B	-i,	2E/	.	1g	.
2E\	fi-	.	.	2e\	-li-	.	.
2F\	-li-	1r	.	2A/	-us	2a/	-li-
2E\	-us	.	.	2.e\	pa-	2g/	-us
1F	pa-	1r	.	.	.	1a	pa-
.	.	.	.	4d\	.	.	.
.	.	.	.	4d\	.	.	.
.	.	.	.	4c\	.	.	.
=34	=34	=34	=34	=34	=34	=34	=34
[0.El	-tris.	2r	.	[0.el	-tris.	[0.gl	-tris.
.	.	2B\	fi-	.	.	.	.
.	.	2c\	-li-	.	.	.	.
.	.	2B\	-us	.	.	.	.
.	.	1c	pa-	.	.	.	.
=35	=35	=35	=35	=35	=35	=35	=35
0.E]	.	0.Bl	-tris.	0.e]	.	0.g]	.
!!LO:LB:i:g=z
=36||	=36||	=36||	=36||	=36||	=36||	=36||	=36||
*>B	*>B	*>B	*>B	*>B	*>B	*>B	*>B
*clefF4	*	*clefGv2	*	*clefGv2	*	*clefG2	*
*k[]	*	*k[]	*	*k[]	*	*k[]	*
*M2/1	*	*M2/1	*	*M2/1	*	*M2/1	*
*met(C|)	*	*met(C|)	*	*met(C|)	*	*met(C|)	*
!!section: Qui tollis
!!!OMD: Qui tollis
!LO:TX:Z=24:X=-40:t=Tenor in diapente	!	!	!	!	!	!	!
!LO:TX:Z=8:X=-40:t=Canon at the upper fifth (B-->T, 3 breves)	!	!	!	!	!	!	!
0r	.	0r	.	0r	.	0e	Qui
=37	=37	=37	=37	=37	=37	=37	=37
0r	.	0r	.	0A	Qui	1a	tol-
.	.	.	.	.	.	1a	-lis
=38	=38	=38	=38	=38	=38	=38	=38
0r	.	0r	.	1d	tol-	1f	pec-
.	.	.	.	1d	-lis	1f	-ca-
=39	=39	=39	=39	=39	=39	=39	=39
0r	.	0r	.	1B	pec-	1g	-ta
.	.	.	.	1B	-ca-	1g	mun-
=40	=40	=40	=40	=40	=40	=40	=40
0r	.	0r	.	1c	-ta	1e	.
.	.	.	.	1c	mun-	[1a	.
=41	=41	=41	=41	=41	=41	=41	=41
0D	Qui	0r	.	1A	.	2a/]	.
.	.	.	.	.	.	2g/	.
.	.	.	.	[1d	.	2.f/	.
.	.	.	.	.	.	4e/	.
=42	=42	=42	=42	=42	=42	=42	=42
1G	tol-	0r	.	2d\]	.	1d	.
.	.	.	.	2c\	.	.	.
1G	-lis	.	.	2.B\	.	[1g	.
.	.	.	.	4A/	.	.	.
=43	=43	=43	=43	=43	=43	=43	=43
1E	pec-	0r	.	1G	-di,	2g/]	.
.	.	.	.	.	.	2f/	.
1E	-ca-	.	.	[1c	mi-	2.e/	.
.	.	.	.	.	.	4d/	.
=44	=44	=44	=44	=44	=44	=44	=44
1F	-ta	0A	Qui	2c\]	.	1c	-di,
.	.	.	.	4B\	.	.	.
.	.	.	.	4A/	.	.	.
1F	mun-	.	.	2A/	-se-	2r	.
.	.	.	.	[2d\	-re-	[2f/	mi-
=45	=45	=45	=45	=45	=45	=45	=45
0D	-di,	1d	tol-	2d\]	.	4f/]	.
.	.	.	.	.	.	4d/	-se-
.	.	.	.	2B\	-re	1g	-re-
.	.	1d	-lis	1A	no-	.	.
.	.	.	.	.	.	2f/	-re
=46	=46	=46	=46	=46	=46	=46	=46
0r	.	1B	pec-	1G	-bis,	1.g	no-
.	.	1B	-ca-	2r	.	.	.
.	.	.	.	2G/	no-	2e/	.
=47	=47	=47	=47	=47	=47	=47	=47
1r	.	1c	-ta	2.A/	.	0e	-bis,
.	.	.	.	4B\	.	.	.
1A	mi-	1c	mun-	2c\	.	.	.
.	.	.	.	[2A/	.	.	.
=48	=48	=48	=48	=48	=48	=48	=48
1.c	.	0A	-di,	4A/]	.	1r	.
.	.	.	.	4B\	.	.	.
.	.	.	.	4c\	.	.	.
.	.	.	.	4d\	.	.	.
.	.	.	.	1e	-bis,	[1cc	mi-
2B\	-se-	.	.	.	.	.	.
=49	=49	=49	=49	=49	=49	=49	=49
2A\	-re-	0r	.	2r	.	2cc\]	.
2G\	-re	.	.	1e	mi-	2b\	.
1F	no-	.	.	.	.	1a	-se-
.	.	.	.	2d\	-se-	.	.
=50	=50	=50	=50	=50	=50	=50	=50
0E	-bis,	1r	.	2e\	-re-	2.g/	-re-
.	.	.	.	2E/	-re	.	.
.	.	.	.	.	.	4a/	.
.	.	1e	mi-	2.G/	no-	2b\	.
.	.	.	.	.	.	2cc\	.
.	.	.	.	4A/	.	.	.
=51	=51	=51	=51	=51	=51	=51	=51
0r	.	1.g	.	2B\	.	2b\	-re
.	.	.	.	4E/	.	1ee	no-
.	.	.	.	4F/	.	.	.
.	.	.	.	4G/	.	.	.
.	.	.	.	4A/	.	.	.
.	.	2f\	-se-	2B\	.	2dd\	.
=52	=52	=52	=52	=52	=52	=52	=52
0r	.	2e\	-re-	2c\	.	2cc\	.
.	.	2d\	-re	2G/	.	1b	.
.	.	1c	no-	1A	.	.	.
.	.	.	.	.	.	2a/	.
=53	=53	=53	=53	=53	=53	=53	=53
0G	Qui	0B	-bis,	0E	-bis,	1b	-bis,
.	.	.	.	.	.	2r	.
.	.	.	.	.	.	2b\	Qui
=54	=54	=54	=54	=54	=54	=54	=54
1A	tol-	0r	.	1r	.	1cc	tol-
1A	-lis	.	.	1e	Qui	1cc	-lis
=55	=55	=55	=55	=55	=55	=55	=55
1F	pec-	0r	.	2.f\	tol-	1a	pec-
.	.	.	.	4e\	.	.	.
1F	-ca-	.	.	2c\	-lis	1a	-ca-
.	.	.	.	[2d\	pec-	.	.
=56	=56	=56	=56	=56	=56	=56	=56
1G	-ta	0d	Qui	4d\]	.	1b	-ta
.	.	.	.	4c\	.	.	.
.	.	.	.	2.B\	-ca-	.	.
1G	mun-	.	.	.	.	1b	mun-
.	.	.	.	4G/	.	.	.
.	.	.	.	[2G/	-ta	.	.
=57	=57	=57	=57	=57	=57	=57	=57
0E	-di,	1e	tol-	2G/]	.	1g	-di,
.	.	.	.	2.g\	mun-	.	.
.	.	1e	-lis	.	.	2r	.
.	.	.	.	4f\	.	.	.
.	.	.	.	4e\	.	[2g/	mun-
.	.	.	.	4d\	.	.	.
=58	=58	=58	=58	=58	=58	=58	=58
0r	.	1c	pec-	4e\	.	4g/]	.
.	.	.	.	4d\	.	4f/	.
.	.	.	.	4c\	.	4e/	.
.	.	.	.	4B\	.	4d/	.
.	.	1c	-ca-	1A	.	1e	.
=59	=59	=59	=59	=59	=59	=59	=59
1r	.	1d	-ta	1.B	.	1d	-di,
[1G	su-	1d	mun-	.	.	2r	.
.	.	.	.	2G/	.	[2dd\	su-
=60	=60	=60	=60	=60	=60	=60	=60
2G\]	.	0B	-di,	1G	-di,	2dd\]	.
2G\	-sci-	.	.	.	.	2dd\	-sci-
1G	-pe	.	.	2.g\	su-	1dd	-pe
.	.	.	.	4f\	.	.	.
=61	=61	=61	=61	=61	=61	=61	=61
1A	de-	0r	.	4e\	.	1cc	de-
.	.	.	.	4d\	.	.	.
.	.	.	.	1c	.	.	.
1A	-pre-	.	.	.	.	1cc	-pre-
.	.	.	.	4B\	-sci-	.	.
.	.	.	.	4A/	.	.	.
=62	=62	=62	=62	=62	=62	=62	=62
1.B-	-ca-	1r	.	0G	-pe	1.dd	-ca-
.	.	[1d	su-	.	.	.	.
2A\	-ti-	.	.	.	.	2cc\	-ti-
=63	=63	=63	=63	=63	=63	=63	=63
1G	-o-	2d\]	.	1r	.	2b\	-o-
.	.	2d\	-sci-	.	.	2g/	-nem
1F	-nem	1d	-pe	1A	de-	1a	no-
=64	=64	=64	=64	=64	=64	=64	=64
0E	no-	1e	de-	1B	.	1g	-stram.
.	.	1e	-pre-	1c	-pre-	2r	.
.	.	.	.	.	.	2g/	no-
=65	=65	=65	=65	=65	=65	=65	=65
0D	-stram.	1.f	-ca-	1.d	-ca-	2a/	.
.	.	.	.	.	.	2d/	.
.	.	.	.	.	.	2f/	.
.	.	2e\	-ti-	2e\	-ti-	2g/	.
=66	=66	=66	=66	=66	=66	=66	=66
0r	.	1d	-o-	1f	-o-	2a/	.
.	.	.	.	.	.	2b\	.
.	.	1c	-nem	1e	-nem	2cc\	.
.	.	.	.	.	.	[2a/	.
=67	=67	=67	=67	=67	=67	=67	=67
0r	.	0B	nos-	2d\	no-	2a/]	.
.	.	.	.	2G/	.	4g/	.
.	.	.	.	.	.	4f/	.
.	.	.	.	2.d\	.	1g	.
.	.	.	.	4e\	.	.	.
=68	=68	=68	=68	=68	=68	=68	=68
1D	Qui	0A	-stram.	1f	-stram.	0a	-tram.
1F	se-	.	.	2r	.	.	.
.	.	.	.	2A/	Qui	.	.
=69	=69	=69	=69	=69	=69	=69	=69
2E\	-des	0r	.	1c	se-	0r	.
2E\	ad	.	.	.	.	.	.
2G\	dex-	.	.	2B\	-des	.	.
2G\	-te-	.	.	2B\	ad	.	.
=70	=70	=70	=70	=70	=70	=70	=70
1D	-ram	0r	.	2d\	dex-	0r	.
.	.	.	.	2d\	-te-	.	.
[1F	pa-	.	.	1A	-ram	.	.
=71	=71	=71	=71	=71	=71	=71	=71
1F]	.	1A	Qui	2.c\	pa-	1r	.
.	.	.	.	4d\	.	.	.
1E	-tris,	1c	se-	2e\	.	1e	Qui
.	.	.	.	[2E/	.	.	.
=72	=72	=72	=72	=72	=72	=72	=72
0r	.	2B\	-des	4E/]	.	1g	se-
.	.	.	.	4F/	.	.	.
.	.	2B\	ad	2G/	.	.	.
.	.	2d\	dex-	2.D/	.	2f/	-des
.	.	2d\	-te-	.	.	2f/	ad
.	.	.	.	4E/	.	.	.
=73	=73	=73	=73	=73	=73	=73	=73
0r	.	1A	-ram	4F/	.	2a/	dex-
.	.	.	.	4G/	.	.	.
.	.	.	.	2.A/	.	2a/	-te-
.	.	[1c	pa-	.	.	2.e/	-ram
.	.	.	.	4G/	.	.	.
.	.	.	.	2A/	.	.	.
.	.	.	.	.	.	4f/	pa-
=74	=74	=74	=74	=74	=74	=74	=74
1E	mi-	1c]	.	2E/	-tris,	0g	-tris,
.	.	.	.	2.e\	mi-	.	.
1E	-se-	1B	-tris,	.	.	.	.
.	.	.	.	4d\	.	.	.
.	.	.	.	2e\	.	.	.
=75	=75	=75	=75	=75	=75	=75	=75
2.F\	-re-	0r	.	2c\	-se-	2r	.
.	.	.	.	1f	-re-	2a/	mi-
4D\	.	.	.	.	.	.	.
2D\	-re	.	.	.	.	2b\	-se-
[2A\	no-	.	.	2e\	-re	[2cc\	-re-
=76	=76	=76	=76	=76	=76	=76	=76
4A\]	.	0r	.	2f\	no-	4cc\]	.
4G\	.	.	.	.	.	4b\	.
2E\	.	.	.	1e	.	2g/	-re
1F	.	.	.	.	.	1a	no-
.	.	.	.	2d\	.	.	.
=77	=77	=77	=77	=77	=77	=77	=77
0E	-bis.	1B	mi-	[0e	-bis.	0g	-bis.
.	.	1B	-se-	.	.	.	.
=78	=78	=78	=78	=78	=78	=78	=78
0r	.	2.c\	-re-	0e]	.	2r	.
.	.	.	.	.	.	2g/	no-
.	.	4A/	.	.	.	.	.
.	.	2A/	-re	.	.	2a/	.
.	.	[2e\	no-	.	.	[2cc\	.
=79	=79	=79	=79	=79	=79	=79	=79
*	*	*	*	*M3/1	*	*	*
*met(3)	*	*met(3)	*	*met(3)	*	*met(3)	*
0r	.	4e\]	.	3%2e	Quo-	4cc\]	.
.	.	4d\	.	.	.	4b\	.
.	.	2B\	.	.	.	1b	.
.	.	.	.	3%2e	-ni-	.	.
.	.	1c	.	.	.	.	.
.	.	.	.	3%2e	-am	.	.
.	.	.	.	.	.	2a/	.
=80	=80	=80	=80	=80	=80	=80	=80
*M3/1	*	*	*	*	*	*M3/3%2	*
*met(3)	*	*met(3)	*	*met(3)	*	*met(3)	*
3%2G	Quo-	0B	-bis.	3%4d	tu	3%4b	-bis.
3%2G	-ni-	.	.	.	.	.	.
3%2G	-am	.	.	3%2d	so-	3%2r	.
=81	=81	=81	=81	=81	=81	=81	=81
3%4E	tu	0r	.	3%2.e	-lus	3%2g	Quo-
.	.	.	.	.	.	3%2g	-ni-
.	.	.	.	3d\	.	.	.
3%2E	so-	.	.	3%2B	.	3%2g	-am
=82	=82	=82	=82	=82	=82	=82	=82
3%2.A	-lus	0r	.	3%4c	sanc-	3%4e	tu
3G\	sanc-	.	.	.	.	.	.
3F\	.	.	.	3%2A	-tus,	3%2a	so-
3E\	.	.	.	.	.	.	.
=83	=83	=83	=83	=83	=83	=83	=83
*	*	*M3/1	*	*	*	*	*
*	*	*met(3)	*	*	*	*	*
3%4.D	-tus,	3%2d	Quo-	3%4A	.	3%2.a	-lus
.	.	3%2d	-ni-	.	.	.	.
.	.	.	.	.	.	3g/	sanc-
.	.	3%2d	-am	[3%2d	so-	3f/	.
.	.	.	.	.	.	3e/	.
=84	=84	=84	=84	=84	=84	=84	=84
3%4.r	.	3%4B	to	3%2d]	.	3%4d	-tus,
.	.	.	.	3%2G	-lus	.	.
.	.	3%2B	so	3%2G	Do-	3%2d	sanc-
=85	=85	=85	=85	=85	=85	=85	=85
3%4.r	.	3%2.e	-lus	3%2E	-mi-	3%4g	.
.	.	.	.	3%2E	-nus,	.	.
.	.	3d\	sanc-	.	.	.	.
.	.	3c\	.	[3%2A	.	3%2e	.
.	.	3B\	.	.	.	.	.
=86	=86	=86	=86	=86	=86	=86	=86
3%2F	tu	3%4.A	-tus,	3A/]	.	3%4a	-tus,
.	.	.	.	3G/	.	.	.
3%2F	so-	.	.	3F/	.	.	.
.	.	.	.	3E/	.	.	.
3%2F	-lus	.	.	3%2D	.	3%2r	.
=87	=87	=87	=87	=87	=87	=87	=87
3%4D	Do-	3%4.r	.	3%2d	tu	3%2f	tu
.	.	.	.	3%2d	so-	3%2f	so-
3%2D	-mi-	.	.	3%2d	-lus	3%2f	-lus
=88	=88	=88	=88	=88	=88	=88	=88
3%2.G	-nus,	3%4.r	.	3%2B	Al-	3%2d	Do-
.	.	.	.	3%2B	-tis-	3%2d	-mi-
3F\	.	.	.	.	.	.	.
3E\	.	.	.	3%2B	-si-	3%2g	.
3D\	.	.	.	.	.	.	.
=89	=89	=89	=89	=89	=89	=89	=89
3%4C	.	3%2c	tu	3%4.e	-mus,	3%2.g	-nus,
.	.	3%2c	so-	.	.	.	.
.	.	.	.	.	.	3f/	.
3%2r	.	3%2c	-lus	.	.	3e/	.
.	.	.	.	.	.	3d/	.
=90	=90	=90	=90	=90	=90	=90	=90
3%4F	tu	3%4A	Do-	3%2r	.	3%4c	.
.	.	.	.	3%2r	.	.	.
3%2F	so-	3%2A	-mi-	3%2A	tu	3%2r	.
=91	=91	=91	=91	=91	=91	=91	=91
3%4D	-lus	3%2.d	-nus,	3%2B	so-	3%4f	tu
.	.	.	.	3%2A	-lus	.	.
.	.	3c\	.	.	.	.	.
3%2D	Al-	3B\	.	3%2d	Al-	3%2f	so-
.	.	3A/	.	.	.	.	.
=92	=92	=92	=92	=92	=92	=92	=92
3%2.E	-tis-	3%4G	.	3%4B	-tis-	3%2.g	-lus
3F\	.	.	.	.	.	3f/	.
3%2G	-si-	3%2r	.	3%2B	-si-	3%2d	.
=93	=93	=93	=93	=93	=93	=93	=93
3%4.C	-mus,	3%4c	tu	3%4G	-mus,	3%4e	.
.	.	3%2c	so-	3%2G	Al-	3%2r	.
=94	=94	=94	=94	=94	=94	=94	=94
3%4.r	.	3%4A	-lus	3%4F	-tis-	3%2f	Al-
.	.	.	.	.	.	3%2f	-tis-
.	.	3%2A	Al-	3%2D	.	3%2f	-si-
=95	=95	=95	=95	=95	=95	=95	=95
3%4.r	.	3%2.B	-tis-	3%4G	.	3%4d	-mus,
.	.	3c\	.	.	.	.	.
.	.	3%2d	-si-	3%2G	-si-	3%2d	Je-
=96	=96	=96	=96	=96	=96	=96	=96
*M2/1	*	*M2/1	*	*M2/1	*	*M2/1	*
*met(C|)	*	*met(C|)	*	*met(C|)	*	*met(C|)	*
1r	.	0G	-mus,	1E	-mus,	2.e/	.
.	.	.	.	.	.	4f/	.
1E	Je-	.	.	2r	.	1g	.
.	.	.	.	[2e\	Je-	.	.
=97	=97	=97	=97	=97	=97	=97	=97
1F	.	0r	.	2e\]	.	1a	.
.	.	.	.	2d\	.	.	.
2E\	-su	.	.	1e	-su	2g/	-su
[2A\	Chri-	.	.	.	.	[2cc\	Chri-
=98	=98	=98	=98	=98	=98	=98	=98
4A\]	.	0r	.	2r	.	4cc\]	.
4G\	.	.	.	.	.	4b\	.
2E\	.	.	.	1e	Je-	2g/	.
1F	.	.	.	.	.	1a	.
.	.	.	.	2d\	.	.	.
=99	=99	=99	=99	=99	=99	=99	=99
[0El	-ste,	1r	.	1e	-su	1g	-ste,
.	.	1B	Je-	2E/	Chri-	2r	.
.	.	.	.	2G/	.	2g/	Chri-
=100	=100	=100	=100	=100	=100	=100	=100
0E_	.	1c	.	2.C/	.	2.e/	.
.	.	.	.	4D/	.	4f/	.
.	.	2B\	-su	2E/	.	1g	-ste,
.	.	[2e\	Chri-	2C/	.	.	.
=101	=101	=101	=101	=101	=101	=101	=101
0E_	.	4e\]	.	1G	.	2r	.
.	.	4d\	.	.	.	.	.
.	.	2B\	.	.	.	2g/	Chri-
.	.	1c	.	1C	.	2.e/	.
.	.	.	.	.	.	4f/	.
=102	=102	=102	=102	=102	=102	=102	=102
0E]	.	0Bl	-ste,	0Gl	-ste,	0gl	-ste.
!!LO:LB:i:g=z
=103||	=103||	=103||	=103||	=103||	=103||	=103||	=103||
*>C	*>C	*>C	*>C	*>C	*>C	*>C	*>C
*clefF4	*	*clefGv2	*	*clefGv2	*	*clefG2	*
*k[]	*	*k[]	*	*k[]	*	*k[]	*
*M3/1	*	*M3/1	*	*M3/1	*	*M3/1	*
*met(O|)	*	*met(O|)	*	*met(O|)	*	*met(O|)	*
!LO:TX:Z=30:t=Tenor in diapente	!	!	!	!	!	!	!
!!section: Cum sancto spiritu
!!!OMD: Cum sancto spiritu
!LO:TX:Z=13:X:=-40:t=Canon at the upper fifth (B-->T, one breve)	!	!	!	!	!	!	!
0.r	.	0.r	.	0.r	.	1.f	Cum
.	.	.	.	.	.	2e/	.
.	.	.	.	.	.	1d	.
=104	=104	=104	=104	=104	=104	=104	=104
0.r	.	0.r	.	1.c	Cum	2.c/	sanc-
.	.	.	.	.	.	4d/	.
.	.	.	.	.	.	4e/	.
.	.	.	.	.	.	4f/	.
.	.	.	.	2B\	.	1g	.
.	.	.	.	1A	.	.	.
.	.	.	.	.	.	2f#i/	.
=105	=105	=105	=105	=105	=105	=105	=105
1.G	Cum	0.r	.	2.G/	sanc-	2g/	-to
.	.	.	.	.	.	2d/	spi-
.	.	.	.	4A/	.	.	.
.	.	.	.	4B\	.	2e/	.
.	.	.	.	4c\	.	.	.
2F\	.	.	.	1d	.	2f/	.
1E	.	.	.	.	.	1g	.
.	.	.	.	2c#i\	.	.	.
=106	=106	=106	=106	=106	=106	=106	=106
2.D\	sanc-	1.d	Cum	2d\	-to	1f	.
.	.	.	.	1f	spi-	.	.
4E\	.	.	.	.	.	.	.
4F\	.	.	.	.	.	1a	.
4G\	.	.	.	.	.	.	.
1A	.	2c\	.	2e\	.	.	.
.	.	1B	.	1d	.	1b	.
2G#i\	.	.	.	.	.	.	.
=107	=107	=107	=107	=107	=107	=107	=107
1A	-to	2.A/	sanc-	2c\	.	2.cc\	.
.	.	.	.	1F	.	.	.
.	.	4B\	.	.	.	4b\	.
1r	.	4c\	.	.	.	2a/	.
.	.	4d\	.	.	.	.	.
.	.	1e	.	2G/	.	2g/	.
1r	.	.	.	2A/	.	1f	.
.	.	2d\	.	2B\	.	.	.
=108	=108	=108	=108	=108	=108	=108	=108
1E	Cum	1e	-to	4c\	.	2e/	.
.	.	.	.	4B\	.	.	.
.	.	.	.	2.e\	.	2.g/	.
1E	sanc-	1r	.	.	.	.	.
.	.	.	.	4d\	.	4f/	.
.	.	.	.	4c\	.	2g/	.
.	.	.	.	4B\	.	.	.
1F	-to	1r	.	1A	.	2a/	.
.	.	.	.	.	.	2cc\	-ri-
=109	=109	=109	=109	=109	=109	=109	=109
0G	spi-	1B	Cum	4G/	-ri-	2b\	-tu,
.	.	.	.	4A/	.	.	.
.	.	.	.	4B\	.	2g/	.
.	.	.	.	4c\	.	.	.
.	.	1B	sanc-	2d\	-tu,	2r	.
.	.	.	.	2G/	.	1g	in
1E	-ri-	1c	-to	2r	.	.	.
.	.	.	.	2G/	in	2e/	.
=110	=110	=110	=110	=110	=110	=110	=110
1D	-tu,	0d	spi-	2A/	glo-	2f/	glo-
.	.	.	.	1B	.	1d	.
0G	in	.	.	.	.	.	.
.	.	.	.	2G/	.	1dd	.
.	.	1B	-ri-	2d\	.	.	.
.	.	.	.	4e\	.	2b\	.
.	.	.	.	4d\	.	.	.
=111	=111	=111	=111	=111	=111	=111	=111
1F	glo-	1A	-tu,	1.f	.	2cc\	.
.	.	.	.	.	.	1a	.
0D	.	0d	in	.	.	.	.
.	.	.	.	2d\	.	2f/	.
.	.	.	.	1f	.	2.a/	.
.	.	.	.	.	.	4b\	.
=112	=112	=112	=112	=112	=112	=112	=112
1.A	.	1c	glo-	2e\	.	1.cc	.
.	.	.	.	4A/	.	.	.
.	.	.	.	4B\	.	.	.
.	.	0A	.	4c\	.	.	.
.	.	.	.	4d\	.	.	.
2G\	.	.	.	1e	.	2b\	.
1F	-ri-	.	.	.	.	1a	-ri-
.	.	.	.	2A/	-ri-	.	.
=113	=113	=113	=113	=113	=113	=113	=113
1E	-a,	1.e	.	2B\	-a,	1g	-a,
.	.	.	.	1c	in	.	.
0A	in	.	.	.	.	1r	.
.	.	2d\	.	2d\	.	.	.
.	.	1c	-ri-	2e\	.	1a	in
.	.	.	.	2c\	.	.	.
=114	=114	=114	=114	=114	=114	=114	=114
1G	glo-	1B	-a,	2d\	glo-	2b\	.
.	.	.	.	1e	.	1g	.
0E	.	0e	in	.	.	.	.
.	.	.	.	2c\	.	2.g/	glo-
.	.	.	.	1B	-ri-	.	.
.	.	.	.	.	.	4f/	.
.	.	.	.	.	.	2g/	.
=115	=115	=115	=115	=115	=115	=115	=115
1F	.	1d	glo-	1A	-a	4a/	.
.	.	.	.	.	.	4g/	.
.	.	.	.	.	.	4f/	.
.	.	.	.	.	.	4e/	.
0G	.	0B	.	2r	.	2d/	.
.	.	.	.	2G/	in	2.g/	.
.	.	.	.	2d\	.	.	.
.	.	.	.	.	.	4f/	.
.	.	.	.	2e\	.	2g/	-ri-
=116	=116	=116	=116	=116	=116	=116	=116
1F	.	1c	.	2.f\	glo-	2a/	-a
.	.	.	.	.	.	2f/	.
.	.	.	.	4F/	.	.	.
0D	.	0d	.	2F/	.	2r	.
.	.	.	.	2B-\	.	2.f/	in
.	.	.	.	1A	-ri-	.	.
.	.	.	.	.	.	4e/	.
.	.	.	.	.	.	2f/	.
=117	=117	=117	=117	=117	=117	=117	=117
1E	.	1c	.	1G	-a	4g/	glo-
.	.	.	.	.	.	4f/	.
.	.	.	.	.	.	4e/	.
.	.	.	.	.	.	4d/	.
0F	.	0A	.	2r	.	2c/	.
.	.	.	.	2F/	in	2.cc\	.
.	.	.	.	2c\	.	.	.
.	.	.	.	.	.	4b\	.
.	.	.	.	2d\	.	[2a/	.
=118	=118	=118	=118	=118	=118	=118	=118
1E	.	1B	.	0e	glo-	2a/]	.
.	.	.	.	.	.	2g/	-ri-
0C	.	0c	.	.	.	2a/	-a
.	.	.	.	.	.	2.g/	in
.	.	.	.	2E/	.	.	.
.	.	.	.	.	.	4f/	.
.	.	.	.	2G/	.	[2e/	glo-
=119	=119	=119	=119	=119	=119	=119	=119
1D	.	1B	.	2F/	.	4e/]	.
.	.	.	.	.	.	4d/	.
.	.	.	.	2D/	.	1d	.
0E	-ri-	0G	.	1B	.	.	.
.	.	.	.	.	.	1g	.
.	.	.	.	1c	.	.	.
.	.	.	.	.	.	4f/	.
.	.	.	.	.	.	4e/	.
=120	=120	=120	=120	=120	=120	=120	=120
1D	-a	1A	.	1d	-ri-	2.f/	.
.	.	.	.	.	.	4d/	-ri-
1r	.	0B	-ri-	1G	-a	2d/	-a
.	.	.	.	.	.	1dd	De-
1G	in	.	.	2r	.	.	.
.	.	.	.	2g\	De-	2b\	.
=121	=121	=121	=121	=121	=121	=121	=121
2A\	glo-	1A	-a	2e\	.	2.cc\	.
2F\	.	.	.	2a\	.	.	.
.	.	.	.	.	.	4a/	.
2G\	.	1r	.	2g\	.	2b\	.
2A\	.	.	.	2.f\	.	1a	.
1B-	-ri-	1d	in	.	.	.	.
.	.	.	.	4e\	.	.	.
.	.	.	.	2d\	.	2g/	.
=122	=122	=122	=122	=122	=122	=122	=122
1A	-a	2e\	glo-	1c	-i	2a/	.
.	.	2c\	.	.	.	2e/	.
2r	.	2d\	.	1r	.	2f/	.
2G\	De-	2e\	.	.	.	1e	.
2A\	.	1f	-ri-	1r	.	.	.
2Bni\	.	.	.	.	.	2d/	.
=123	=123	=123	=123	=123	=123	=123	=123
2.c\	.	1e	-a	1A	pa-	2e/	-i
.	.	.	.	.	.	2cc\	pa-
4B\	.	.	.	.	.	.	.
2G\	.	2r	.	1B	.	2b\	.
2B\	.	2d\	De-	.	.	2dd\	.
1A	.	2e\	.	1c	.	2cc\	.
.	.	2f\	.	.	.	2a/	.
=124	=124	=124	=124	=124	=124	=124	=124
1G	-i	2.g\	.	1d	-tris.	2b\	.
.	.	.	.	.	.	2.dd\	.
.	.	4f\	.	.	.	.	.
2r	.	2d\	.	1r	.	.	.
.	.	.	.	.	.	4cc\	.
2F\	pa-	2f\	.	.	.	2a/	.
2G\	.	1e	.	1r	.	2b\	.
2A\	.	.	.	.	.	2cc\	.
=125	=125	=125	=125	=125	=125	=125	=125
2.B-i\	.	1d	-i	1G	pa-	2.dd\	.
4A\	.	.	.	.	.	4cc\	.
2F\	.	2r	.	1A	.	2a/	.
2A\	.	2c\	pa-	.	.	2cc\	.
1G	.	2d\	.	1B	.	1b	.
.	.	2e\	.	.	.	.	.
=126	=126	=126	=126	=126	=126	=126	=126
1F	-tris.	2.f\	.	1c	-tris.	2a/	-tris.
.	.	.	.	.	.	2.cc\	A-
.	.	4e\	.	.	.	.	.
2r	.	2c\	.	1r	.	.	.
.	.	.	.	.	.	4b\	.
2E\	A-	2e\	.	.	.	2g/	.
2F\	.	1d	.	1r	.	2a/	.
2G\	.	.	.	.	.	2b\	.
=127	=127	=127	=127	=127	=127	=127	=127
2.A\	.	1c	-tris.	1F	pa-	2.cc\	.
4G\	.	.	.	.	.	4b\	.
2E\	.	2r	.	1G	.	2g/	.
2G\	.	2B\	A-	.	.	2b\	.
1F	.	2c\	.	1A	.	1a	.
.	.	2d\	.	.	.	.	.
=128	=128	=128	=128	=128	=128	=128	=128
1E	-men,	2.e\	.	2B\	.	1g	-men,
.	.	.	.	2c\	.	.	.
.	.	4d\	.	.	.	.	.
2r	.	2B\	.	2d\	.	2r	.
2D\	a-	2d\	.	2f\	.	2f/	a-
2E\	.	1c	.	2e\	.	2g/	.
2F\	.	.	.	2A/	-tris.	2a/	.
=129	=129	=129	=129	=129	=129	=129	=129
2.G\	.	1B	-men,	2r	.	1d	.
.	.	.	.	2.d\	A-	.	.
4F\	.	.	.	.	.	.	.
2D\	.	2r	.	.	.	1a	.
.	.	.	.	4c\	.	.	.
2F\	.	2A/	a-	2d\	.	.	.
1E	.	2B\	.	2e\	.	1g	.
.	.	2c\	.	2G/	-men,	.	.
=130	=130	=130	=130	=130	=130	=130	=130
1D	-men,	2.d\	.	2.A/	a-	2f/	.
.	.	.	.	.	.	2.a/	.
.	.	4c\	.	4B\	.	.	.
2r	.	2A/	.	4c\	.	.	.
.	.	.	.	4d\	.	4g/	.
2C/	A-	2c\	.	2e\	.	2e/	.
2D\	.	1B	.	2d\	.	2f/	.
2E\	.	.	.	2G/	.	2g/	.
=131	=131	=131	=131	=131	=131	=131	=131
2.F\	.	[0.Al	-men.	1c	.	2.a/	.
4E\	.	.	.	.	.	4g/	.
4D\	.	.	.	0d	.	4f/	.
4C/	.	.	.	.	.	4e/	.
1D	.	.	.	.	.	1f	.
4C/	.	.	.	.	.	4e/	.
4BB/	.	.	.	.	.	4d/	.
=132	=132	=132	=132	=132	=132	=132	=132
0.AAl	-men.	0.A]	.	0.el	-men.	0.cl	-men.
==	==	==	==	==	==	==	==
*-	*-	*-	*-	*-	*-	*-	*-
!!!RDF**kern: l=long note in original notation
!!!RDF**kern: i=editorial accidental
!!!RDF**kern: %=rational rhythm
!!!rscale-alt: 1/4
!!!RDF**kern: l=long note in original notation
!!!RDF**kern: i=editorial accidental
!!!ENC: Jesse Rodin; Victoria Chang 2011/04/06; JR 2013/02 (text)
!!!END: 2013/03/08/
!!!SMS: Davison, Missa sine nomine
!!!EED:	Jesse Rodin
!!!EEV:	2013/03/08/
!!attribution-level@Jos: 1 (secure)
!!!ONB:	Translated from MusicXML and edited on 2013/03/08/ by Craig Sapp
!!muse2ps: T^@{OPR}^u^@{ONM}{. }@{OTL}^C^@{COM}\n@{SCT}^i2I100v85,90,90,130Q16
!!!ONB: April 2013 Concert
